symbols/web/cloudy_snowing/materialsymbolsoutlined/cloudy_snowing_wght200gradN25_48px.svg

<svg xmlns="http://www.w3.org/2000/svg" height="48" width="48"><path d="M12 37.2q-.55 0-.825-.275-.275-.275-.275-.825 0-.5.275-.8.275-.3.825-.3.55 0 .825.3.275.3.275.8t-.275.8q-.275.3-.825.3Zm24 0q-.55 0-.825-.275-.275-.275-.275-.825 0-.5.275-.8.275-.3.825-.3.55 0 .825.3.275.3.275.8t-.275.8q-.275.3-.825.3Zm-18 8q-.55 0-.825-.275-.275-.275-.275-.825 0-.5.275-.8.275-.3.825-.3.55 0 .825.3.275.3.275.8t-.275.8q-.275.3-.825.3Zm6-8q-.55 0-.825-.275-.275-.275-.275-.825 0-.5.275-.8.275-.3.825-.3.55 0 .825.3.275.3.275.8t-.275.8q-.275.3-.825.3Zm6 8q-.55 0-.825-.275-.275-.275-.275-.825 0-.5.275-.8.275-.3.825-.3.55 0 .825.3.275.3.275.8t-.275.8q-.275.3-.825.3ZM14.75 30.5q-4 0-6.85-2.85-2.85-2.85-2.85-6.9 0-3.75 2.6-6.575T14.35 11q1.45-2.75 3.975-4.375Q20.85 5 24 5q4.3 0 7.3 2.85t3.5 7.1q3.95.15 6.075 2.475T43 22.8q0 3.2-2.25 5.45t-5.5 2.25Zm0-1.5h20.5q2.6 0 4.425-1.85 1.825-1.85 1.825-4.4 0-2.55-1.825-4.4-1.825-1.85-4.425-1.85h-2v-.75q0-3.8-2.725-6.525Q27.8 6.5 24 6.5q-2.8 0-5.075 1.5-2.275 1.5-3.425 4.1l-.15.4h-.7q-3.35.1-5.725 2.525Q6.55 17.45 6.55 20.75q0 3.4 2.4 5.825Q11.35 29 14.75 29ZM24 17.75Z"/></svg>

<svg xmlns="http://www.w3.org/2000/svg" height="48" width="48"><path d="M12 37.2Q11.45 37.2 11.175 36.925Q10.9 36.65 10.9 36.1Q10.9 35.6 11.175 35.3Q11.45 35 12 35Q12.55 35 12.825 35.3Q13.1 35.6 13.1 36.1Q13.1 36.6 12.825 36.9Q12.55 37.2 12 37.2ZM36 37.2Q35.45 37.2 35.175 36.925Q34.9 36.65 34.9 36.1Q34.9 35.6 35.175 35.3Q35.45 35 36 35Q36.55 35 36.825 35.3Q37.1 35.6 37.1 36.1Q37.1 36.6 36.825 36.9Q36.55 37.2 36 37.2ZM18 45.2Q17.45 45.2 17.175 44.925Q16.9 44.65 16.9 44.1Q16.9 43.6 17.175 43.3Q17.45 43 18 43Q18.55 43 18.825 43.3Q19.1 43.6 19.1 44.1Q19.1 44.6 18.825 44.9Q18.55 45.2 18 45.2ZM24 37.2Q23.45 37.2 23.175 36.925Q22.9 36.65 22.9 36.1Q22.9 35.6 23.175 35.3Q23.45 35 24 35Q24.55 35 24.825 35.3Q25.1 35.6 25.1 36.1Q25.1 36.6 24.825 36.9Q24.55 37.2 24 37.2ZM30 45.2Q29.45 45.2 29.175 44.925Q28.9 44.65 28.9 44.1Q28.9 43.6 29.175 43.3Q29.45 43 30 43Q30.55 43 30.825 43.3Q31.1 43.6 31.1 44.1Q31.1 44.6 30.825 44.9Q30.55 45.2 30 45.2ZM14.75 30.5Q10.75 30.5 7.9 27.65Q5.05 24.8 5.05 20.75Q5.05 17 7.65 14.175Q10.25 11.35 14.35 11Q15.8 8.25 18.325 6.625Q20.85 5 24 5Q28.3 5 31.3 7.85Q34.3 10.7 34.8 14.95Q38.75 15.1 40.875 17.425Q43 19.75 43 22.8Q43 26 40.75 28.25Q38.5 30.5 35.25 30.5ZM14.75 29H35.25Q37.85 29 39.675 27.15Q41.5 25.3 41.5 22.75Q41.5 20.2 39.675 18.35Q37.85 16.5 35.25 16.5H33.25V15.75Q33.25 11.95 30.525 9.225Q27.8 6.5 24 6.5Q21.2 6.5 18.925 8Q16.65 9.5 15.5 12.1L15.35 12.5H14.65Q11.3 12.6 8.925 15.025Q6.55 17.45 6.55 20.75Q6.55 24.15 8.95 26.575Q11.35 29 14.75 29ZM24 17.75Q24 17.75 24 17.75Q24 17.75 24 17.75Q24 17.75 24 17.75Q24 17.75 24 17.75Q24 17.75 24 17.75Q24 17.75 24 17.75Q24 17.75 24 17.75Q24 17.75 24 17.75Q24 17.75 24 17.75Q24 17.75 24 17.75Q24 17.75 24 17.75Q24 17.75 24 17.75Z"/></svg>
